X: 2
T:UA Anthem
R:anthem
M:C
L:1/8
K:C
Q:1/4=120
!f! e3 e (ede) f | g3 f e2 d2 | Lc2 Le2 LB2 Le2 | (A^GAB c2) d2 |
e3 e (ede) f | g3 f e2 d2 | c2 A2 e3 ^G | A4 A z2 |
!mf! B3 B (edc) B (ABc) A B2 B2 | !f! c3 c d2 d2 | e4 e2 z2|
B3 B (edc) B (ABc) A B2 B2 | Lc2 Le2 LB2 Le2 | (ABcd e2) f2 |
|: !ff! g3 ^f g2 e2 | d2 d2 (g=fe) d | c2 c2 d2 d2| (e3 d cde) f|
g3 ^f g2 e2 | d2 d2 (g=fe) d | c2 A2 e3 ^G| A4 A2 z2 :|

